X:176
T:Reel de Pere Leon
M:4/4
L:1/8
O:French Canadian
K:G
|:ef | "G"g2gf gedc | B2Ac BGG2 | "Em"B2BB cBAG | "Am"FGAB "D7"A2 ef |
"G"g2gf gedc | "Bm"B2Ac "Em"BGG2 | "Am"B2BB cBAG | "D7"FGAF "G"G2 :|
|: A2 | "G"B3B cBAG | "Em"BGBd cBAG | "Am"B3B cBAG | "D7"FGAB A2D2 |
"G"B3B cBAG |"Em"BGBd cBAG | "C"B3B "Am"cBAG | "D7"FGAF "G"G2 :|
